X: 10539
T: Dooney Rock, The
R: jig
M: 6/8
K: Adorian
|:B|AGE EDE|GAB cBA|~G3 GAB|GAB c2B|
AGE EDE|GAB c2d|ea/a/g edB|cAA A2:|
|:B|Ace ~a3|bag edB|GBd ~g3|age dBG|
Ace ~a3|bag edB|GBd ~g3|edB A2:|

